src/assets/icons/numery/b0.svg

<?xml version="1.0" encoding="UTF-8" standalone="no"?>
<svg
   width="28pt"
   height="28pt"
   viewBox="0 0 28 28"
   version="1.1"
   id="svg14"
   sodipodi:docname="b0.svg"
   inkscape:version="1.1 (c4e8f9e, 2021-05-24)"
   xmlns:inkscape="http://www.inkscape.org/namespaces/inkscape"
   xmlns:sodipodi="http://sodipodi.sourceforge.net/DTD/sodipodi-0.dtd"
   xmlns="http://www.w3.org/2000/svg"
   xmlns:svg="http://www.w3.org/2000/svg">
  <defs
     id="defs18" />
  <sodipodi:namedview
     id="namedview16"
     pagecolor="#ffffff"
     bordercolor="#666666"
     borderopacity="1.0"
     inkscape:pageshadow="2"
     inkscape:pageopacity="0.0"
     inkscape:pagecheckerboard="0"
     inkscape:document-units="pt"
     showgrid="false"
     inkscape:zoom="16"
     inkscape:cx="13.65625"
     inkscape:cy="24.84375"
     inkscape:window-width="1920"
     inkscape:window-height="1027"
     inkscape:window-x="0"
     inkscape:window-y="25"
     inkscape:window-maximized="1"
     inkscape:current-layer="svg14" />
  <path
     style="fill:#000000;fill-opacity:1;fill-rule:nonzero;stroke:none"
     d="m 18.34375,13.945312 c 0,0.953126 -0.07422,1.796876 -0.222656,2.566407 -0.144532,0.808593 -0.367188,1.46875 -0.730469,2.019531 -0.332031,0.550781 -0.773437,0.992188 -1.359375,1.285156 -0.550781,0.328125 -1.207031,0.476563 -2.050781,0.476563 -0.773438,0 -1.394531,-0.148438 -1.945313,-0.40625 -0.511718,-0.292969 -0.953125,-0.695313 -1.28125,-1.207031 -0.296875,-0.550782 -0.550781,-1.210938 -0.660156,-1.984376 -0.148438,-0.769531 -0.222656,-1.6875 -0.222656,-2.675781 0,-0.953125 0.074218,-1.796875 0.222656,-2.570312 0.183594,-0.804688 0.402344,-1.464844 0.769531,-2.015625 0.328125,-0.550782 0.769531,-0.992188 1.320313,-1.320313 0.546875,-0.292969 1.246094,-0.441406 2.050781,-0.441406 0.769531,0 1.429687,0.148437 1.945313,0.402344 0.550781,0.296875 0.953124,0.699219 1.28125,1.210937 0.332031,0.550782 0.550781,1.210938 0.699218,1.984375 0.144532,0.769531 0.183594,1.6875 0.183594,2.675781 z m -1.652344,0.109376 c 0,-0.585938 -0.03516,-1.136719 -0.07422,-1.648438 C 16.582031,11.929688 16.507812,11.488281 16.4375,11.121094 16.324219,10.753906 16.214844,10.425781 16.105469,10.167969 15.957031,9.910156 15.8125,9.691406 15.59375,9.507812 15.410156,9.324219 15.1875,9.214844 14.96875,9.140625 14.710938,9.066406 14.457031,8.992188 14.125,8.992188 c -0.511719,0 -0.953125,0.148437 -1.28125,0.40625 -0.332031,0.253906 -0.625,0.585937 -0.808594,1.027343 -0.183594,0.4375 -0.328125,0.953125 -0.367187,1.574219 -0.07422,0.589844 -0.109375,1.210938 -0.109375,1.910156 0,0.878906 0.03516,1.6875 0.148437,2.308594 0.07031,0.660156 0.21875,1.175781 0.4375,1.578125 0.183594,0.402344 0.476563,0.699219 0.769531,0.882813 0.332032,0.183593 0.734376,0.253906 1.175782,0.253906 0.367187,0 0.660156,-0.03516 0.914062,-0.144532 0.296875,-0.109374 0.515625,-0.292968 0.699219,-0.515624 0.183594,-0.183594 0.367187,-0.4375 0.476563,-0.734376 0.144531,-0.292968 0.21875,-0.621093 0.328124,-0.988281 0.07422,-0.367187 0.109376,-0.769531 0.148438,-1.175781 0.03516,-0.402344 0.03516,-0.84375 0.03516,-1.320312 z m 0,0"
     id="path11" />
  <rect
     style="opacity:1;fill:none;stroke:#000000;stroke-width:1.1728;stroke-linejoin:round;stroke-miterlimit:4;stroke-dasharray:none;stroke-opacity:1;paint-order:markers fill stroke"
     id="rect308"
     width="26.606733"
     height="26.606733"
     x="0.72813225"
     y="0.72813225"
     ry="4.3362432"
     rx="4.3362441" />
</svg>

<?xml version="1.0" encoding="UTF-8"?>
<svg xmlns="http://www.w3.org/2000/svg" xmlns:xlink="http://www.w3.org/1999/xlink" width="28pt" height="28pt" viewBox="0 0 28 28" version="1.1">
<g id="surface1">
<path style="fill-rule:nonzero;fill:rgb(0%,0%,0%);fill-opacity:1;stroke-width:8;stroke-linecap:butt;stroke-linejoin:miter;stroke:rgb(0%,0%,0%);stroke-opacity:1;stroke-miterlimit:2;" d="M 161.000388 42.026443 L 673.00074 42.026443 C 706.026148 42.026443 735.962082 55.975502 756.949196 78.017146 C 779.001646 99.952309 791.998742 129.980056 791.998742 162.989281 L 791.998742 669.947091 C 791.998742 704.02113 779.001646 734.048877 756.949196 755.984039 C 735.962082 778.025683 706.026148 791.974743 673.00074 791.974743 L 161.000388 791.974743 C 127.97498 791.974743 98.039046 778.025683 77.051932 755.984039 C 54.999483 734.048877 42.002387 704.02113 42.002387 669.947091 L 42.002387 162.989281 C 42.002387 129.980056 54.999483 99.952309 77.051932 78.017146 C 98.039046 55.975502 127.97498 42.026443 161.000388 42.026443 Z M 673.00074 67.049565 L 161.000388 67.049565 C 135.006196 67.049565 111.994944 78.017146 94.949573 94.947684 C 78.010734 113.049517 67.037776 137.007826 67.037776 162.989281 L 67.037776 669.947091 C 67.037776 696.993359 78.010734 720.951668 94.949573 737.988687 C 111.994944 755.984039 135.006196 765.993288 161.000388 765.993288 L 673.00074 765.993288 C 698.994932 765.993288 722.006184 755.984039 739.051556 737.988687 C 755.990394 720.951668 766.00455 696.993359 766.00455 669.947091 L 766.00455 162.989281 C 766.00455 137.007826 755.990394 113.049517 739.051556 94.947684 C 722.006184 78.017146 698.994932 67.049565 673.00074 67.049565 Z M 673.00074 67.049565 " transform="matrix(0.0366668,0,0,0.0366848,-1.27447,-1.31517)"/>
<path style=" stroke:none;fill-rule:nonzero;fill:rgb(0%,0%,0%);fill-opacity:1;" d="M 18.34375 13.945312 C 18.34375 14.898438 18.269531 15.742188 18.121094 16.511719 C 17.976562 17.320312 17.753906 17.980469 17.390625 18.53125 C 17.058594 19.082031 16.617188 19.523438 16.03125 19.816406 C 15.480469 20.144531 14.824219 20.292969 13.980469 20.292969 C 13.207031 20.292969 12.585938 20.144531 12.035156 19.886719 C 11.523438 19.59375 11.082031 19.191406 10.753906 18.679688 C 10.457031 18.128906 10.203125 17.46875 10.09375 16.695312 C 9.945312 15.925781 9.871094 15.007812 9.871094 14.019531 C 9.871094 13.066406 9.945312 12.222656 10.09375 11.449219 C 10.277344 10.644531 10.496094 9.984375 10.863281 9.433594 C 11.191406 8.882812 11.632812 8.441406 12.183594 8.113281 C 12.730469 7.820312 13.429688 7.671875 14.234375 7.671875 C 15.003906 7.671875 15.664062 7.820312 16.179688 8.074219 C 16.730469 8.371094 17.132812 8.773438 17.460938 9.285156 C 17.792969 9.835938 18.011719 10.496094 18.160156 11.269531 C 18.304688 12.039062 18.34375 12.957031 18.34375 13.945312 Z M 16.691406 14.054688 C 16.691406 13.46875 16.65625 12.917969 16.617188 12.40625 C 16.582031 11.929688 16.507812 11.488281 16.4375 11.121094 C 16.324219 10.753906 16.214844 10.425781 16.105469 10.167969 C 15.957031 9.910156 15.8125 9.691406 15.59375 9.507812 C 15.410156 9.324219 15.1875 9.214844 14.96875 9.140625 C 14.710938 9.066406 14.457031 8.992188 14.125 8.992188 C 13.613281 8.992188 13.171875 9.140625 12.84375 9.398438 C 12.511719 9.652344 12.21875 9.984375 12.035156 10.425781 C 11.851562 10.863281 11.707031 11.378906 11.667969 12 C 11.59375 12.589844 11.558594 13.210938 11.558594 13.910156 C 11.558594 14.789062 11.59375 15.597656 11.707031 16.21875 C 11.777344 16.878906 11.925781 17.394531 12.144531 17.796875 C 12.328125 18.199219 12.621094 18.496094 12.914062 18.679688 C 13.246094 18.863281 13.648438 18.933594 14.089844 18.933594 C 14.457031 18.933594 14.75 18.898438 15.003906 18.789062 C 15.300781 18.679688 15.519531 18.496094 15.703125 18.273438 C 15.886719 18.089844 16.070312 17.835938 16.179688 17.539062 C 16.324219 17.246094 16.398438 16.917969 16.507812 16.550781 C 16.582031 16.183594 16.617188 15.78125 16.65625 15.375 C 16.691406 14.972656 16.691406 14.53125 16.691406 14.054688 Z M 16.691406 14.054688 "/>
</g>
</svg>
